svg/transport/fan_direction_up_line.svg

<?xml version="1.0" encoding="UTF-8"?>
<svg width="24px" height="24px" viewBox="0 0 24 24" version="1.1" xmlns="http://www.w3.org/2000/svg" xmlns:xlink="http://www.w3.org/1999/xlink">
    <title>fan_direction_up_line</title>
    <g id="页面-1" stroke="none" stroke-width="1" fill="none" fill-rule="evenodd">
        <g id="Transport" transform="translate(-672.000000, -96.000000)" fill-rule="nonzero">
            <g id="fan_direction_up_line" transform="translate(672.000000, 96.000000)">
                 <path d="M24,0 L24,24 L0,24 L0,0 L24,0 Z M12.5934901,23.257841 L12.5819402,23.2595131 L12.5108777,23.2950439 L12.4918791,23.2987469 L12.4918791,23.2987469 L12.4767152,23.2950439 L12.4056548,23.2595131 C12.3958229,23.2563662 12.3870493,23.2590235 12.3821421,23.2649074 L12.3780323,23.275831 L12.360941,23.7031097 L12.3658947,23.7234994 L12.3769048,23.7357139 L12.4804777,23.8096931 L12.4953491,23.8136134 L12.4953491,23.8136134 L12.5071152,23.8096931 L12.6106902,23.7357139 L12.6232938,23.7196733 L12.6232938,23.7196733 L12.6266527,23.7031097 L12.609561,23.275831 C12.6075724,23.2657013 12.6010112,23.2592993 12.5934901,23.257841 L12.5934901,23.257841 Z M12.8583906,23.1452862 L12.8445485,23.1473072 L12.6598443,23.2396597 L12.6498822,23.2499052 L12.6498822,23.2499052 L12.6471943,23.2611114 L12.6650943,23.6906389 L12.6699349,23.7034178 L12.6699349,23.7034178 L12.678386,23.7104931 L12.8793402,23.8032389 C12.8914285,23.8068999 12.9022333,23.8029875 12.9078286,23.7952264 L12.9118235,23.7811639 L12.8776777,23.1665331 C12.8752882,23.1545897 12.8674102,23.1470016 12.8583906,23.1452862 L12.8583906,23.1452862 Z M12.1430473,23.1473072 C12.1332178,23.1423925 12.1221763,23.1452606 12.1156365,23.1525954 L12.1099173,23.1665331 L12.0757714,23.7811639 C12.0751323,23.7926639 12.0828099,23.8018602 12.0926481,23.8045676 L12.108256,23.8032389 L12.3092106,23.7104931 L12.3186497,23.7024347 L12.3186497,23.7024347 L12.3225043,23.6906389 L12.340401,23.2611114 L12.337245,23.2485176 L12.337245,23.2485176 L12.3277531,23.2396597 L12.1430473,23.1473072 Z" id="MingCute" fill-rule="nonzero"></path>
                <path d="M17.9829,8.05132 C18.5068,8.22596 18.79,8.79228 18.6153,9.31623 L18.0883,10.8974 C17.2716,13.3474 14.9788,15 12.3962,15 L9.85408,15 C9.09653,15 8.40401,15.428 8.06522,16.1056 L5.8944,20.4472 C5.64741,20.9412 5.04674,21.1414 4.55276,20.8944 C4.05878,20.6474 3.85856,20.0468 4.10555,19.5528 L6.27637,15.2111 C6.95394,13.856 8.33899,13 9.85408,13 L12.3962,13 C14.1179,13 15.6465,11.8983 16.1909,10.2649 L16.718,8.68377 C16.8926,8.15983 17.4589,7.87667 17.9829,8.05132 Z M7.99998,4.75732 C8.26519,4.75732 8.51955,4.86268 8.70708,5.05022 L10.8284,7.17154 C11.2189,7.56206 11.2189,8.19523 10.8284,8.58575 C10.4379,8.97628 9.80471,8.97628 9.41419,8.58575 L7.99998,7.17154 L6.58576,8.58575 C6.19524,8.97628 5.56207,8.97628 5.17155,8.58575 C4.78102,8.19523 4.78102,7.56206 5.17155,7.17154 L7.29287,5.05022 C7.4804,4.86268 7.73476,4.75732 7.99998,4.75732 Z M18.5,3 C19.3284,3 20,3.67157 20,4.5 C20,5.32843 19.3284,6 18.5,6 C17.6715,6 17,5.32843 17,4.5 C17,3.67157 17.6715,3 18.5,3 Z" id="形状" fill="#09244B"></path>
            </g>
        </g>
    </g>
</svg>

<svg xmlns="http://www.w3.org/2000/svg" width="24" height="24"><g fill="none" fill-rule="nonzero"><path d="M24 0v24H0V0h24ZM12.593 23.258l-.011.002-.071.035-.02.004-.014-.004-.071-.035c-.01-.004-.019-.001-.024.005l-.004.01-.017.428.005.02.01.013.104.074.015.004.012-.004.104-.074.012-.016.004-.017-.017-.427c-.002-.01-.009-.017-.017-.018Zm.265-.113-.013.002-.185.093-.01.01-.003.011.018.43.005.012.008.007.201.093c.012.004.023 0 .029-.008l.004-.014-.034-.614c-.003-.012-.01-.02-.02-.022Zm-.715.002a.023.023 0 0 0-.027.006l-.006.014-.034.614c0 .012.007.02.017.024l.015-.002.201-.093.01-.008.004-.011.017-.43-.003-.012-.01-.01-.184-.092Z"/><path fill="#09244B" d="M17.983 8.051a1 1 0 0 1 .632 1.265l-.527 1.581A6 6 0 0 1 12.396 15H9.854a2 2 0 0 0-1.789 1.106l-2.17 4.341a1 1 0 1 1-1.79-.894l2.171-4.342A4 4 0 0 1 9.854 13h2.542a4 4 0 0 0 3.795-2.735l.527-1.581a1 1 0 0 1 1.265-.633ZM8 4.757a1 1 0 0 1 .707.293l2.121 2.122a1 1 0 0 1-1.414 1.414L8 7.172 6.586 8.586a1 1 0 1 1-1.414-1.414l2.12-2.122A1 1 0 0 1 8 4.757ZM18.5 3a1.5 1.5 0 1 1 0 3 1.5 1.5 0 0 1 0-3Z"/></g></svg>
